X:258
T: GROSSER GOTT WIR LOBEN DICH
N: B0738
O: Europa, Mitteleuropa, Deutschland
R: Lob -, Dank - Lied, religioes
M: 6/8
L: 1/8
K: G
 | G2GG2G | AGAG3 |
B2BBcd | d2cB2A |
G2GG2G | AGAG3 |
B2BBcd | d2cB2A |
ABcc2A | Bcdd3 |
eced2B | cBAG3

@@@ Tune index: 2476
